X: 22
T: Mój wiekuisty Pasterz mię pasie,
C: Mikołaj Gomółka
%%abc-version 2.0
%%abcx-abcm2ps-target-version 5.9.1 (29 Sep 2008)
%%abc-creator hum2abc beta
%%abcx-conversion-date 2021/10/04 07:59:09
%%abc-edited-by Leszek Kubiak
%%abcx-initial-encoding-date data 2020-02-05
%%humdrum-veritas 2379558494
%%humdrum-veritas-data 216703917
%%linebreak <none>
%%barnumbers 0
L: 1/4
M: C|
N: Derived from pl-wn--sd-xvi-qu-273--023_gomolka-mikolaj--moj-wiekuisty-pasterz-mie-pasie.krn
%%staves [1 2 3 4]
V: 1
V: 2 clef=alto
V: 3 clef=alto
V: 4 clef=bass
K: F
[V:1] z4z2B2 [|] 
[V:2] z4z2D2 [|] 
[V:3] z4z2B,2 [|] 
[V:4] z4z2G,2 [|] 
[V:1] A2G2F3E [|] 
[V:2] F2GA2<B2A [|] 
[V:3] C2C2D3C [|] 
[V:4] F,2_E,2D,4 [|] 
[V:1] D2d2c2B4 [|] 
[V:2] F2BAGFG2 [|] 
[V:3] B,2F2_E3D [|] 
[V:4] D,2D,2_E,2E,2 [|] 
[V:1] A2B4 [|] 
[V:2] F2>_E2D4 [|] 
[V:3] CB,C2B,4 [|] 
[V:4] F,4B,,4 [|] 
[V:1] z2F2G2A2 [I:setbarnb 6][|] 
[V:2] z2F2_E2C2 [|] 
[V:3] z2B,2B,2A,2 [|] 
[V:4] z2D,2_E,2F,2 [|] 
[V:1] B2>A2F2G2 [|] 
[V:2] F2>E2DCB,2 [|] 
[V:3] D4D2D2 [|] 
[V:4] B,,2>C,2D,2B,2 [|] 
[V:1] F2F4E2 [|] 
[V:2] B,2C2D2G,2 [|] 
[V:3] D2C4B,2 [|] 
[V:4] B,2A,2G,4 [|] 
[V:1] F2A2d3c [|] 
[V:2] A,2C2B,CD2 [|] 
[V:3] C2F2DEF2 [|] 
[V:4] F,2F,2B,3A, [|] 
[V:1] B2AGABc3 [|] 
[V:2] DCDEF2G2 [|] 
[V:3] B,4CD_E2 [|] 
[V:4] G,2G,2F,2E,2 [|] 
[V:1] BB4A2 [|] 
[V:2] F2_E2F3=E [|] 
[V:3] D2CB,C4 [|] 
[V:4] F,2G,2F,4 [|] 
[V:1] B32 |]  
[V:2] !fermata!D32 |]  
[V:3] B,32 |]  
[V:4] B,,32 |]  


